src/assets/svg/ic_calculator.svg

<svg xmlns="http://www.w3.org/2000/svg" width="16" height="16">
    <path d="M14 2a1 1 0 00-1-1H3a1 1 0 00-1 1v12a1 1 0 001 1h10a1 1 0 001-1V2zM6 13H4v-1h2v1zm0-2H4v-1h2v1zm0-2H4V8h2v1zm3 3v1H7v-1h2zm0-1H7v-1h2v1zm0-2H7V8h2v1zm3 4h-2v-1h2v1zm0-2h-2v-1h2v1zm0-2h-2V8h2v1zm0-2H4V3h8v4z"/>
</svg>

<?xml version="1.0" encoding="utf-8"?>
<!-- Generator: Adobe Illustrator 16.0.4, SVG Export Plug-In . SVG Version: 6.00 Build 0)  -->
<!DOCTYPE svg PUBLIC "-//W3C//DTD SVG 1.1//EN" "http://www.w3.org/Graphics/SVG/1.1/DTD/svg11.dtd">
<svg version="1.1" id="artwork" xmlns="http://www.w3.org/2000/svg" xmlns:xlink="http://www.w3.org/1999/xlink" x="0px" y="0px"
	 width="16px" height="16px" viewBox="0 0 16 16" enable-background="new 0 0 16 16" xml:space="preserve">
<g>
	<path d="M14,2c0-0.552-0.448-1-1-1H3C2.448,1,2,1.448,2,2v12c0,0.552,0.448,1,1,1h10c0.552,0,1-0.448,1-1V2z M6,13
		H4v-1h2V13z M6,11H4v-1h2V11z M6,9H4V8h2V9z M9,12v1H7v-1H9z M9,11H7v-1h2V11z M9,9H7V8h2V9z M12,13h-2v-1h2V13z M12,11h-2v-1h2V11
		z M12,9h-2V8h2V9z M12,7H4V3h8V7z"/>
</g>
</svg>
